X: 1
T: Min levnads afton
T: My Life's Evening
O: Trad. efter Pekkos Olof Hansson
S: handwritten MS (from Leif Alpsj\"o's playing)
S: ganglat/Min_Levnads_Afton-Gm-32-3.abc
Z: 2022 John Chambers <jc:trillian.mit.edu> (chords add)
R: g\aangl\aat
M: 2/4
L: 1/16
K: Gm
z2 | "Gm"G,2G,A, B,2B,C | "D7"D6 D^F | "Gm"G2Ac B4 | "D7"ABA^F DEDC || "Gm"B,B,C B,2C2 |
"(D7)"D6 d2 | "Gm"B2BG "D7"AcA^F | "Gm"G6 :: (3g/^f/g/ | "Gm"=b2g2 gag^f | "D7"d6 c2 |
"Bb"B2d2 fdfd | "Cm"~cBc(^c "D7"d4) || "Gm"BcBA GABc | "Gm"dcBA {A}B4 | "D7"A2^F2 DFAB | "Gm"G6 :|
